icon-themes/breeze_svg/cmd/lc_connectorcurvecircles.svg

<svg viewBox="0 0 24 24" xmlns="http://www.w3.org/2000/svg"><path d="m7 4c-1.65685 0-3 1.34314-3 3s1.34315 3 3 3c1.30132 0 2.39699-.84165 2.8125-2h1.1875 5.5c.82843 0 1.5.67157 1.5 1.5s-.67157 1.5-1.5 1.5h-9c-1.9329966 0-3.5 1.567003-3.5 3.5s1.5670034 3.5 3.5 3.5h5.5 4v-2h-4-5.5c-.8284272 0-1.5-.671573-1.5-1.5s.6715728-1.5 1.5-1.5h9c1.933 0 3.5-1.567 3.5-3.5 0-1.7652678-1.300997-3.2286594-3-3.46875v-.03125h-.5-5.5-1.1875c-.41551-1.15835-1.51118-2-2.8125-2zm0 2c.55228 0 1 .44772 1 1s-.44772 1-1 1-1-.44772-1-1 .44772-1 1-1z" fill="#4d4d4d"/></svg>

<svg viewBox="0 0 24 24" xmlns="http://www.w3.org/2000/svg">
  <path
     style="fill:#4d4d4d"
     d="M 7 4 C 5.34315 4 4 5.34314 4 7 C 4 8.65686 5.34315 10 7 10 C 8.30132 10 9.39699 9.15835 9.8125 8 L 11 8 L 16.5 8 C 17.32843 8 18 8.67157 18 9.5 C 18 10.32843 17.32843 11 16.5 11 L 7.5 11 C 5.5670034 11 4 12.567003 4 14.5 C 4 16.432997 5.5670034 18 7.5 18 L 13 18 L 17 18 L 17 16 L 13 16 L 7.5 16 C 6.6715728 16 6 15.328427 6 14.5 C 6 13.671573 6.6715728 13 7.5 13 L 16.5 13 C 18.433 13 20 11.433 20 9.5 C 20 7.7347322 18.699003 6.2713406 17 6.03125 L 17 6 L 16.5 6 L 11 6 L 9.8125 6 C 9.39699 4.84165 8.30132 4 7 4 z M 7 6 C 7.55228 6 8 6.44772 8 7 C 8 7.55228 7.55228 8 7 8 C 6.44772 8 6 7.55228 6 7 C 6 6.44772 6.44772 6 7 6 z " />
</svg>
